X: 37435
T: Sliabh Luachra, The
R: polka
M: 2/4
K: Dmajor
D|FA A>B|Ad e/d/c/B/|AF F>D|FE E>D|
FA A>B|Ad e/d/c/B/|AF E>F|D3:|
A|dA Ac|dA Ad|B>A Bd|e3 c|
df Bd|Ad B/A/G/F/|E>D EF|D3:|

